packages/foundations/assets/icons/functional/images/file/cloud_download_16.svg

<svg width="16" height="16" viewBox="0 0 16 16" fill="none" xmlns="http://www.w3.org/2000/svg">
<g clip-path="url(#clip0_185_884)">
<path fill-rule="evenodd" clip-rule="evenodd" d="M7.99998 7.20001C8.41024 7.20001 8.74838 7.50884 8.79459 7.90671L8.79998 8.00001L8.80019 11.7068C9.10611 11.5301 9.50398 11.5726 9.76566 11.8343C10.054 12.1227 10.0762 12.5765 9.83221 12.8903L9.76566 12.9657L8.56566 14.1657L8.50034 14.2243L8.41654 14.2832L8.33855 14.3251L8.24969 14.3602L8.16056 14.3838L8.06017 14.3978L7.99998 14.4L7.92795 14.3968L7.8812 14.3912L7.78718 14.3713L7.70291 14.343L7.61273 14.3003L7.52373 14.2429L7.47792 14.2062L7.43429 14.1657L6.23429 12.9657L6.16774 12.8903C5.94405 12.6026 5.94405 12.1974 6.16774 11.9097L6.23429 11.8343L6.30966 11.7678C6.53976 11.5889 6.84509 11.553 7.10531 11.6603L7.20054 11.7073L7.19998 8.00001L7.20536 7.90671C7.25157 7.50884 7.58971 7.20001 7.99998 7.20001ZM9.59998 1.60001C11.8091 1.60001 13.6 3.39087 13.6 5.60001L13.5896 5.87441L13.6582 5.95126C14.0483 6.41853 14.2996 6.99025 14.3756 7.6042L14.3944 7.81033L14.4 8.00001C14.4 9.64267 13.159 11.0062 11.5284 11.182L11.3641 11.1956L11.1992 11.1957C10.7895 11.1958 10.4517 10.8876 10.4054 10.4903L10.4 10.3968C10.4 9.95537 10.7577 9.59747 11.1992 9.59731L11.2947 9.59727C12.0971 9.55078 12.7364 8.91371 12.7955 8.12016L12.8 8.00001C12.8 7.57029 12.6304 7.16968 12.3358 6.87333L12.2331 6.77851L11.881 6.48068L11.9623 6.02675C11.9873 5.88714 12 5.74458 12 5.60001C12 4.27452 10.9255 3.20001 9.59998 3.20001C8.77709 3.20001 8.02848 3.61704 7.59119 4.28835L7.50795 4.42595L7.23155 4.91924L6.67431 4.8233C6.58456 4.80785 6.49295 4.80001 6.39998 4.80001C5.73461 4.80001 5.14878 5.20996 4.91079 5.81239L4.86791 5.93538L4.7437 6.34445L4.3346 6.46852C3.66633 6.67119 3.19998 7.29035 3.19998 8.00001C3.19998 8.8435 3.85268 9.53454 4.68057 9.59562L4.80038 9.60001C5.24198 9.60001 5.59998 9.958 5.59998 10.3996C5.59998 10.8098 5.29141 11.148 4.89365 11.1945L4.79998 11.2C3.08622 11.2 1.68711 9.85283 1.60389 8.15972L1.59998 8.00001C1.59998 6.80154 2.26456 5.73272 3.27707 5.18478L3.42405 5.11009L3.48318 5.08321L3.5098 5.02424C3.98369 4.02932 4.94611 3.33624 6.05997 3.21797L6.23706 3.20411L6.39998 3.20001L6.54593 3.01764C7.25255 2.18064 8.47306 1.65307 9.59998 1.60001Z" fill="#1A1C1F"/>
</g>
<defs>
<clipPath id="clip0_185_884">
<rect width="16" height="16" fill="white"/>
</clipPath>
</defs>
</svg>

<svg xmlns="http://www.w3.org/2000/svg" width="16" height="16" fill="none"><g clip-path="url(#a)"><path fill="#1A1C1F" fill-rule="evenodd" d="M8 7.2a.8.8 0 0 1 .795.707L8.8 8v3.707a.8.8 0 0 1 1.032 1.183l-.066.076-1.2 1.2-.066.058-.083.06-.078.041-.09.035-.088.024-.1.014L8 14.4l-.072-.003-.047-.006-.094-.02-.084-.028-.09-.043-.09-.057-.045-.037-.044-.04-1.2-1.2-.066-.076a.8.8 0 0 1 0-.98l.066-.076.076-.066a.8.8 0 0 1 .795-.108l.096.047L7.2 8l.005-.093A.8.8 0 0 1 8 7.2m1.6-5.6a4 4 0 0 1 4 4l-.01.274.068.077c.39.468.642 1.04.718 1.653l.018.206.006.19a3.203 3.203 0 0 1-2.872 3.182l-.164.014H11.2a.8.8 0 0 1-.794-.706l-.005-.093a.8.8 0 0 1 .8-.8h.095a1.6 1.6 0 0 0 1.5-1.477L12.8 8c0-.43-.17-.83-.464-1.127l-.103-.094-.352-.298.081-.454Q12 5.817 12 5.6a2.4 2.4 0 0 0-4.409-1.312l-.083.138-.276.493-.558-.096a1.602 1.602 0 0 0-1.764.99l-.042.122-.124.41-.41.124a1.601 1.601 0 0 0 .347 3.127l.12.004a.8.8 0 0 1 .093 1.595L4.8 11.2a3.2 3.2 0 0 1-3.196-3.04L1.6 8c0-1.198.665-2.267 1.677-2.815l.147-.075.06-.027.026-.059a3.2 3.2 0 0 1 2.55-1.806l.177-.014L6.4 3.2l.146-.182C7.253 2.18 8.473 1.653 9.6 1.6" clip-rule="evenodd"/></g><defs><clipPath id="a"><path fill="#fff" d="M0 0h16v16H0z"/></clipPath></defs></svg>
